X:1
T:Nocturne in C Minor
T:Nocturne in C Minor
T:Op. 48, No. 1
T:Frédéric Chopin
C:Frederic Chopin
%%score { ( 1 3 ) | ( 2 4 ) }
L:1/8
Q:1/4=48
M:4/4
K:Eb
V:1 treble nm="Piano" snm="Pno."
V:3 treble 
V:2 bass 
V:4 bass 
V:1
"^Lento"!p! z2 g2 z2 a2 | z g2 d- d/e/f/e/ d/e/f/g/ | !>!c2 c>c !>!d2 c>A | %3
 !>!G2- G/{/_B}A/G/D/ E/!pp!C/ z z2 |[Q:1/4=54] z2 g2 z2!mp! a2 | a g2 f- f/e/f/{/ef}e/ d/e/f/g/ | %6
 d!>!D- D/G/c/d/!>(! e7/2 ^F/!>)! |!p!!>(! ^F3- F/4G/4B/4=A/4!>)!!pp! G2[Q:1/4=40] z2 | %8
[Q:1/4=54] z2!p!!<(! !>!_A2- A_dfb!<)! |!mp! a3!p! (3a/_g/f/ !arpeggio![FA_df]2 z2 | %10
 z2 G2!<(!{/A_B} A/G/=B/c/ d/e/c'/a/!<)! |!mp! g2- (6:4:6g/^c/d/g/f/e/ e2 z2 | z2 =B2- Bcde | %13
 z2 d2- de[Q:1/4=48]fg |!p![Q:1/4=54] gfac degf | d4 z4 | z2!mf! g2 z2 a2 | %17
 z g2 f- f/e/f/{/ef}e/ d/e/f/g/ |{/g} c4 z2!mp! f2 |!<(!{/=B} e3 d- d/c/d/{/cd}c/ =B/c/d/e/!<)! | %20
!f! G2 !>!c'2-!>(! c'/=b/_b/=a/ _a/!>)!!mp!f/A/_d/- | %21
 [=Ed]/c/_d/c/ ^d/=e/a/!p!g/!<(! F/c/f/g/!<)!!mf! b/a/c/=d/ | %22
 _e2 z!f! (3c/d/c/[Q:1/4=46]"^ten." !>!G2[Q:1/4=54] z (3G/A/G/ | %23
[Q:1/4=46]"^ten." !>!C8[Q:1/4=54][Q:1/4=46] ||[K:C] [CE]4[Q:1/4=54] D2 E>F | %25
!pp!!<(! [CE]2 x2 x2 [CE]2!<)! |!p! [CG]4!>(! [CE]2 z2!>)! | %27
!pp! x4[Q:1/4=46]!<(! x2[Q:1/4=54] [^D=FG]2!<)! | %28
!p![Q:1/4=46] [EGe]4[Q:1/4=54] [=DG=d]2 [EGe][FGBf] | %29
[Q:1/4=66]!<(! !arpeggio![EGce]2 !arpeggio![G,CEG]2!<)!!mp!!>(! !arpeggio![CEAc]2[Q:1/4=46] !arpeggio![EGBe]2!>)! | %30
!p![Q:1/4=54] !arpeggio![EGceg]4 [E^GBe]2 [CDAd]z/[B,F=G]/ |{/B,-} [B,FGd]4 !arpeggio![CEc]4 | %32
!mp! !arpeggio![Aca]4 !arpeggio![Gcg]2 !arpeggio![GAca]2 | %33
 !arpeggio![^FAd^f]2 !arpeggio![CDAd]>!arpeggio![D^Ad] !arpeggio![DBd]2 !arpeggio![DFd]2 | %34
 !arpeggio![Bdb]4!<(! !arpeggio![Ada]2 [AB^db]2!<)! | %35
!mf! !arpeggio![^GBe^g]4!pp![Q:1/4=48] !arpeggio![=GBe=g]2[Q:1/4=54] (3=df3/2e/ | %36
 !arpeggio![Eceg]4 [FGBdg]2 [FGBeg][FGBfg] | !arpeggio![EAcg]2!<(! [G,CEG]2 [CEAc]2 [EGce]2!<)! | %38
!mp! [Gceg]!p![Q:1/4=60]!<(! (3[^F,^F]/[G,G]/[G,G]/ (3[G,G]/!<)!!mf![_A,_A]/!>(![A,A]/ (3[A,A]/[G,G]/!>)!!p![G,G]/!mp![Q:1/4=54]!>(! !>![EGe]2 [DGd][G,B,=FG]!>)! | %39
!p![Q:1/4=48] !>![DFGd][Q:1/4=60]"_cresc." (3[^F,^F]/[G,G]/[G,G]/ (3[^G,^G]/[A,A]/[A,A]/ (3[^A,^A]/[B,B]/[B,B]/ !>![CEc]4 | %40
!f![Q:1/4=48] [=Ac=a]!p![Q:1/4=66]"_cresc." (3[B,B]/[Cc]/[Cc]/ (3[Cc]/[^C^c]/[Cc]/ (3[Cc]/[Dd]/[Q:1/4=40]!>![_E_e]/!f! !>![G=ceg]!p![Q:1/4=66]"_cresc." (3[=Cc]/[^C^c]/[Cc]/ (3[Cc]/[Dd]/[Dd]/ (3[Dd]/[Ee]/[Q:1/4=40]!>![GA=ca]/ | %41
!f! !>![^FAd^f]!p![Q:1/4=60] (3[^C^c]/"_cresc."[Dd]/[Dd]/[Q:1/4=72] (3[Dd]/[^D^d]/[Dd]/ (3[Dd]/[Ee]/[Ee]/ (3[Ee]/[=F=f]/[Ff]/ (3[Ff]/[^F^f]/[Ff]/ (3[Ff]/[Gg]/[^G^g]/ (3[Gg]/[Aa]/[Q:1/4=40][^A^a]/ | %42
!f! !>![B=db]!p![Q:1/4=60]"_cresc." (3[^C^c]/[Dd]/[Dd]/[Q:1/4=72] (3[Dd]/[^D^d]/[Dd]/ (3[Dd]/[Ee]/[Q:1/4=40]!>![=F=f]/!f! !>![AB=da][Q:1/4=60]!p!"_cresc." (3[=Dd]/[^D^d]/[Dd]/[Q:1/4=72] (3[Dd]/[Ee]/[Ee]/ (3[Ee]/[Ff]/[Q:1/4=48]!>![AB^db]/ | %43
!f! !>![^GBe^g][Q:1/4=60]!p!"_cresc." (3[^D^d]/[Ee]/[Ee]/[Q:1/4=72] (3[Ee]/[Ff]/[Ff]/ (3[Ff]/[^F^f]/[Ff]/ (3[Ff]/[=G=g]/[Gg]/ (3[G=fg]/[Gfg]/[Gfg]/ (3[GBfg]/[GBfg]/[GBfg]/ (3[GBfg]/[GBfg]/[Q:1/4=40]!>![GBfg]/ | %44
!ff! [ege'][Q:1/4=72] x x2!mp!!<(! [ege'][Q:1/4=54]"_riten."[Q:1/4=60][dgd'][ege'][Q:1/4=40][fgbf']!<)! | %45
!ff![Q:1/4=20] (3!>![egc'e']/!fff![Q:1/4=34]!8va(! [c'c'']/[d'd'']/[Q:1/4=72] (3!>![c'c'']/!ff![gg']/[aa']/ (3!>![gg']/[ee']/[ff']/!8va)! (3!>![ee']/[cc']/[dd']/ (3!>![cc']/[Gg]/[Aa]/ (3!>![Gg]/[Ee]/[Ff]/ (3!>![Ee]/[Cc]/[Dd]/ (3!>![Cc]/!>![A,A]/[Q:1/4=40]!>![E,E]/ | %46
[Q:1/4=20] (3!>![G,CEG]/!fff![Q:1/4=34] !>![_e_e']/[dd']/[Q:1/4=72] (3[^c^c']/!ff![=c=c']/[Bb]/ (3[_B_b]/[Aa]/[^G^g]/ (3[=G=g]/[^F^f]/[Q:1/4=40][=F=f]/ !>![=e^g=e']2 !>![dfd']!>![FGd=g][Q:1/4=72][Q:1/4=40] | %47
 !>![dfgbd'][Q:1/4=60]"_riten."!fff![Q:1/4=34]!8va(! (3[e'e'']/!ff![d'd'']/[Q:1/4=54][aa']/ (3[gg']/[ee']/[Q:1/4=48][dd']/!8va)! (3[Aa]/[Gg]/[Q:1/4=20]!fff!!>![G,B,FG]/ !>![CEc]2 z2[Q:1/4=48]"_accel."[Q:1/4=54][Q:1/4=60][Q:1/4=72] || %48
[K:Eb][Q:1/4=112]"^Doppio movimento" z2!p! g2 z2!p! a2 | %49
 (6:4:5z x!p! g2 x!p! d- d/e/f/e/ d/e/f/g/ |!p! c2!p! c>!p![EAc] d2!p! (3:2:4e!pp!x!p!c/[CDc]/ | %51
 G2!p! G/{/_B}A/G/D/ (3:2:4E/C/[I:staff +1] E,E, (3E,E,E, |!pp![I:staff -1] x2!p! g2 z2!p! a2 | %53
!p! (6:4:5a!pp! x!p! g2 x!p! f- f/e/f/e/ d/e/f/g/ |!<(! (3[Bd]GD- D/G/c/d/!<)!!mp! e2- eF | %55
!>(! (3:2:2^F2 G-!>)!!p! G4!mp! !>!G2- | G2 A2 (3Ax_d(3fx!mf!_b | %57
!>(! (6:4:5a2- x a2 _g/[_GAf]/!>)! !>!f4- | f2!p! !>!G2!<(! .A/.G/.=B/.c/ .d/.e/.c'/!<)!!mf!.a/ | %59
 !>!g2- (6:4:6g/.^c/.d/.g/.f/.e/ !>!e z x2 | z2 !>!=B2-!p! (6:4:6B!<(!xcdx!<)!!mf!e | %61
!mf! z2 !>!d2-!<(! (6:4:6dxefxg!<)! | (6:4:6g!mf!xfaxc (3dze (7:4:7e/f/e/d/e/g/f/ |!f! !>!d8 | %64
!mp! z2!f! g2 (3[Ac=e][Ace][Ace]!f! a2!mp! | %65
 (3z x!mf! g!>(! (3x x!mp! f!>)!!<(! .[GBdf]/.e/.f/.e/ .d/.e/.f/!<)!!f!.g/ | %66
!<(! c2 (3cxc c2 (3f z!<)!!f! e | e2-!>(! (3ex!>)!!mp!d-!<(! d/.c/.d/.c/ .B/.c/.d/!mf!.e/!<)! | %68
 G2!f! !>!c'2 c'/=b/_b/=a/ _a/f/c/d/ | =e/f/e/d/ e/f/a/g/ c/e/f/g/ b/a/c/d/ | %70
 (3:2:1_e3 (3:2:11x x!f![Q:1/4=72] (3.c/.[EGd]/.[EGc]/[Q:1/4=124]"^ten." (1:1:1G3[Q:1/4=124] (1:1:5x x!f![Q:1/4=72] (9:4:3.G/.[=B,DA]/.[B,DG]/ | %71
[Q:1/4=60]"^ten."!ff! !>!C4-!mf! C/!<(!_D/F/A/ _d/=e/f/!<)!!f!a/[Q:1/4=96]"_riten." | %72
 !>!=B,4- B,/A/G/^F/ =F/G,/F/E/ | !>!C8-[Q:1/4=92][Q:1/4=86][Q:1/4=80] | %74
[Q:1/4=72] C/!p!G,/!>(!C/D/ E/[Q:1/4=60]^F/A/G/ =B/[Q:1/4=54]d/c/e/ ^f/[Q:1/4=48]g/a/g/!>)! | %75
!pp! c'2 z2[Q:1/4=36]!pp! [CE]2 [CE]2 |[Q:1/4=30] !fermata![CE]8 |] %77
V:2
!pp!"^mezza voce"!ped! [C,,C,]2 [G,EG]2!ped-up!!ped! [C,,C,]2 [A,EA]2!ped-up! | %1
!ped! [=B,,,=B,,]2 [G,DFG]2!ped-up!!ped! [C,,C,]2 [G,CEG]2!ped-up! | %2
!ped! [A,,,A,,]2 [CEA]2!ped-up!!ped! [F,,,F,,]2 [F,CD]2!ped-up! | %3
!ped! [G,,,G,,]2 [F,=B,]2!ped-up! [C,,,C,,]2!ped! [E,G,]2!ped-up! | %4
!ped! [E,,,E,,]2 [G,B,EG]2!ped-up!!p!!ped! [A,,,A,,]2 [F,CE]2!ped-up! | %5
!ped! [B,,,B,,]2 [B,DA]!ped-up! z/ [=B,,,=B,,]/!mp!!ped! [C,,C,]2!p! [=A,EG]2!ped-up! | %6
!ped! [D,,D,]2 [B,G]2!ped-up!!ped! [D,,,D,,]2 [=A,C]2!ped-up! | %7
!pp!!ped! [G,,,G,,]2 [D,B,D] z/!ped-up! D,,/!ped! [G,,,G,,]2!ped-up!!ppp! [D,B,D]2 | %8
!p!!ped! [_G,,,_G,,]2!pp! [_G,A,CE]2!ped-up!!p!!ped! [F,,,F,,]2 [F,A,_DF]2!ped-up! | %9
!ped! [C,,,C,,]2 [E,A,E]2!ped-up!!pp!!ped! [_D,,,_D,,]2 [F,A,_D] z/ [C,,C,]/!ped-up! | %10
!mp!!ped! [=B,,,=B,,]2!pp! [G,=DF]2!ped-up!!<(! [C,,C,]2!ped! [G,CG]2!<)!!ped-up! | %11
!p!!ped! [D,,D,]2 [G,=B,FG]2!ped-up!!ped! [E,,E,]2 [G,=CG] z/!ped-up! [E,,E,]/ | %12
!mp!!ped! [F,,F,]2!p! [A,DA]2!ped-up!!ped! [E,,E,]2 [G,CG] z/!ped-up! [C,,C,]/ | %13
!mp!!ped! [=B,,,=B,,]2!p! [G,DFG]2!ped-up!!ped! [C,,C,]2 [G,CEG] z/!ped-up! C,,/ | %14
!mp!!ped! [F,,,F,,]2!p! [F,CA]2!ped-up!!ped! [A,,,A,,]2 [F,CA]2!ped-up! | %15
!ped! [B,,,B,,]2 [F,B,DA] z/ [B,,,B,,]/!ped-up!!mp!!ped! [=B,,,=B,,]2!p! [G,DFG] z/ [G,,,G,,]/!ped-up! | %16
!mp!!ped! [C,,C,]2!p![I:staff -1] [C=E_B]2!ped-up!!ped![I:staff +1] [F,,,F,,]2[I:staff -1] [C_EA]2!ped-up! | %17
!ped![I:staff +1] [B,,,B,,]2 [F,B,DA]2!ped-up!!ped! [E,,E,]2 [G,B,DG]2!ped-up! | %18
!ped! [A,,,A,,]2 [A,CG]2!ped-up!!ped! [D,,D,]2 [A,CG]2!ped-up! | %19
!ped! [G,,,G,,]2 [G,=B,F]2!ped-up!!ped! [A,,,A,,]2!mp! [E,A,E]2!ped-up! | %20
!mf!!ped! [E,,,E,,]2 [E,G,C]2!ped-up!!ped! [F,,,F,,]2!mp! [_D,A,_D]2!ped-up! | %21
!p!!ped! [G,,,G,,]2 [=E,B,C]2!ped-up!!ped! [A,,,A,,]2!mp! [F,C]2!ped-up! | %22
!mf!!ped! [G,,,G,,]2 [E,G,C]2!ped-up!!ped! [G,,,G,,]2!mf! [D,G,=B,]2!ped-up! | %23
 z2!>(! [G,_B,]2 [^F,=A,]2 [=F,_A,]2!>)! || %24
[K:C]!pp!!ped! [E,G,]4!ped-up!!ped! [F,G,B,]2!ped-up! [F,G,B,]>[F,G,B,] | %25
!ped! E,2 [E,G,]2 [E,C]2 G,2 | G,4!ped-up!!ped! A,2!ped-up!{/E} [E,A,D]>[E,A,-C-] | %27
!ped! [D,^F,A,CD]4!ped-up!!ppp! [D,G,B,D]2 [G,B,]2 | %28
 !arpeggio![C,,G,,C,G,]4 !arpeggio![C,,G,,F,G,]2 !arpeggio![C,,G,,C,G,]!arpeggio![C,,G,,D,G,] | %29
!ped! !arpeggio![C,,G,,C,G,]2 !arpeggio![C,,G,,E,]2!ped-up!!ped! !arpeggio![A,,E,A,]2 !arpeggio![E,,E,B,]2!ped-up! | %30
 !arpeggio![C,,G,,C,E,G,C]4 !arpeggio![E,,B,,^G,]2!ped! !arpeggio![F,,D,A,]z/[=G,,D,=G,]/ | %31
 [G,,D,G,]2 [G,,,G,,]2!ped-up!!ped! !arpeggio![C,,G,,C,G,]4!ped-up! | %32
!ped! !arpeggio![F,,C,F,C]4!ped-up!!ped! !arpeggio![E,,C,G,]2!ped-up!!ped! !arpeggio![_E,,C,A,]2!ped-up! | %33
!ped! !arpeggio![D,,A,,D,A,]2 !arpeggio![^F,,D,A,]>!arpeggio![F,,D,^A,]!ped-up!!ped! !arpeggio![G,,D,B,]2!ped-up!!ped! !arpeggio![=A,,D,C]2!ped-up! | %34
!ped! !arpeggio![G,,D,G,D]4!ped-up!!<(! !arpeggio![^F,,D,A,]2 !arpeggio![=F,,B,,^D,B,]2!<)! | %35
!mp!!ped! !arpeggio![E,,B,,E,B,]4!ped-up!!ped! !arpeggio![E,,B,,E,B,]2!ped-up!!ped! !arpeggio![G,,=D,B,]2!ped-up! | %36
!ped! !arpeggio![C,,G,,C,G,]4!ped-up! !arpeggio![C,,G,,G,]2!ped! !arpeggio![C,,G,,G,]!arpeggio![C,,G,,G,]!ped-up! | %37
!ped! !arpeggio![C,,G,,C,G,]2 !arpeggio![C,,G,,E,]2!ped-up! [A,,E,A,]2 !arpeggio![G,,E,C]2 | %38
 [G,,,G,,]!ped! (3[^F,,,^F,,]/[G,,,G,,]/[G,,,G,,]/!ped-up!!ped! (3[G,,,G,,]/[_A,,,_A,,]/[A,,,A,,]/!ped-up!!ped! (3[A,,,A,,]/[G,,,G,,]/[G,,,G,,]/!ped-up!!ped! !>![G,,D,=F,C]2!ped-up! [G,,D,F,B,][G,,,G,,] | %39
 !arpeggio!!>![G,,D,F,B,]!ped! (3[^F,,,^F,,]/[G,,,G,,]/[G,,,G,,]/!ped-up!!ped! (3[^G,,,^G,,]/[A,,,A,,]/[A,,,A,,]/!ped-up!!ped! (3[^A,,,^A,,]/[B,,,B,,]/[B,,,B,,]/!ped-up! !>![C,,C,]4 | %40
!ped! !arpeggio![=F,,C,=F,C]!ped! (3[B,,,B,,]/!ped-up![C,,C,]/[C,,C,]/!ped-up!!ped! (3[C,,C,]/[^C,,^C,]/[C,,C,]/!ped-up!!ped! (3[C,,C,]/[D,,D,]/!>![_E,,_E,]/!ped! !>![E,G,=C_E]!ped-up!!ped! (3[=C,,=C,]/!ped-up![^C,,^C,]/[C,,C,]/!ped-up!!ped! (3[C,,C,]/[D,,D,]/[D,,D,]/!ped-up!!ped! (3[D,,D,]/[E,,E,]/!>![E,G,A,E]/ | %41
!ped! !>![D,A,D]!ped! (3[^C,,^C,]/!ped-up![D,,D,]/[D,,D,]/!ped-up!!ped! (3[D,,D,]/[^D,,^D,]/[D,,D,]/!ped-up!!ped! (3[D,,D,]/[E,,E,]/[E,,E,]/!ped-up!!ped! (3[E,,E,]/[=F,,=F,]/[F,,F,]/!ped-up!!ped! (3[F,,F,]/[^F,,^F,]/[F,,F,]/!ped-up!!ped! (3[F,,F,]/[G,,G,]/[^G,,^G,]/!ped-up!!ped! (3[G,,G,]/[A,,A,]/[^A,,^A,]/!ped-up! | %42
!ped! !>![=G,,=D,B,]!ped! (3[^C,,^C,]/!ped-up![D,,D,]/[D,,D,]/!ped-up!!ped! (3[D,,D,]/[^D,,^D,]/[D,,D,]/!ped-up!!ped! (3[D,,D,]/[E,,E,]/!>![=F,,=F,]/!ped-up!!ped! !>![F,A,B,=DF]!ped! (3[=D,,=D,]/!ped-up![^D,,^D,]/[D,,D,]/!ped-up!!ped! (3[D,,D,]/[E,,E,]/[E,,E,]/!ped-up!!ped! (3[E,,E,]/[F,,F,]/!>![F,A,B,^D]/!ped-up! | %43
 !>![E,B,E]!ped! (3[^D,,^D,]/[E,,E,]/[E,,E,]/!ped-up!!ped! (3[E,,E,]/[F,,F,]/[F,,F,]/!ped-up!!ped! (3[F,,F,]/[^F,,^F,]/[F,,F,]/!ped-up!!ped! (3[F,,F,]/[G,,G,]/[G,,G,]/!ped-up!!ped! (3[G,,G,]/[_A,,_A,]/[=A,,=A,]/!ped-up!!ped! (3[^A,,^A,]/[B,,B,]/[C,C]/!ped-up!!ped! (3[^C,^C]/[=D,=D]/!>![^D,^D]/!ped-up! | %44
!ped! [=C,G,=CE]!f!{/^F,G,} TG,2 F,/!ped-up!G,/!ped! [G,,,G,,][K:treble] [G,D=FB]!ped-up!!ped![G,Ec][G,DGd]!ped-up! | %45
[K:bass] (3!arpeggio!!>![C,G,CG]/[K:treble]!ped! [Cc]/[Dd]/!ped-up!!ped! (3!>![Cc]/[G,G]/[A,A]/[K:bass]!ped-up!!ped! (3!>![G,G]/[E,E]/[F,F]/!ped-up!!ped! (3!>![E,E]/[C,C]/[D,D]/!ped-up!!ped! (3!>![C,C]/[G,,G,]/[A,,A,]/!ped-up!!ped! (3!>![G,,G,]/[E,,E,]/[F,,F,]/!ped-up!!ped! (3!>![E,,E,]/[C,,C,]/[D,,D,]/!ped-up!!ped! (3!>![C,,C,]/!>![A,,,A,,]/!>![C,,,C,,]/!ped-up! | %46
 (3!>![G,,,G,,]/"^sempre"!ped! !>![_E,_E]/[D,D]/!ped-up!!ped! (3[^C,^C]/[=C,=C]/[B,,B,]/!ped-up!!ped! (3[_B,,_B,]/[A,,A,]/[^G,,^G,]/!ped-up!!ped! (3[=G,,=G,]/[^F,,^F,]/[=F,,=F,]/!ped-up!!ped! (3[=E,,=E,]/[^D,,^D,]/[=D,,=D,]/ (3[^C,,^C,]/[=C,,=C,]/[=B,,,=B,,]/!ped-up!!ped! (3[_B,,,_B,,]/[A,,,A,,]/[_A,,,_A,,]/!ped-up!!ped! (3[G,,,G,,]/[^F,,,^F,,]/!ped-up![=A,,,=A,,]/ | %47
 !arpeggio!!>![G,,D,=F,B,][K:treble]!ped! (3[Ee]/[Dd]/[A,A]/[K:bass]!ped-up!!ped! (3[G,G]/[E,E]/[D,D]/!ped-up!!ped! (3[A,,A,]/[G,,G,]/!>![G,,,G,,]/ (3!>![C,,,C,,]/!ped-up!!p!!ped![G,,,G,,]/[G,,,G,,]/!ped-up!!ped! (3[G,,,G,,]/[C,,C,]/[C,,C,]/!ped-up!!ped! (3[C,,C,]/[G,,G,]/[G,,G,]/!ped-up!!ped! (3[G,,G,]/[C,C]/[C,C]/!ped-up! || %48
[K:Eb] (3[C,C]!pp!!ped-up!!ped![E,C][G,E] (3[E,C][G,E][E,C]!p!!ped-up!!ped! (3[F,,F,]!pp![F,C][A,E] (3[F,C][A,E][F,C] | %49
!ped! (3[=B,,,=B,,][B,,G,][D,D] (3[B,,G,][D,D][B,,G,]!p!!ped-up!!ped![I:staff -1] [EG]/[Gc]/[Gc]/[Gc]/ [Gc]/[Gc]/[Gc]/[Gc]/!ped-up! | %50
!p!!ped![I:staff +1] (3[A,,,A,,]!pp![C,A,][E,C] (3[C,A,][E,C][C,A,]!p!!ped-up!!ped! (3[F,,,F,,]!pp![D,F,A,][F,A,C] (3[D,F,A,][F,A,C][D,F,A,]!ped-up! | %51
!ped!!p! (3[G,,,G,,]!pp![G,,D,][D,G,]!ped-up!!ped![I:staff -1] [=B,DF]/[B,DF]/[B,DF]/B,/!p!!ped-up!!ped![I:staff +1] (3[E,G,]/!pp![E,G,]/ x2!ped-up!!ped! x2!ped-up! | %52
!p!!ped! (3[E,,,E,,]!pp![E,B,][G,E]!ped-up!!ped! (3[E,B,][G,E][E,B,]!p!!ped-up!!ped! (3[A,,,A,,]!pp![F,C][A,E]!ped-up!!ped! (3[F,C][A,E][F,C]!ped-up! | %53
!p!!ped! (3[B,,,B,,]!pp![B,,B,][F,D] (3[B,,A,][F,D]!p![=B,,,=B,,]!ped![I:staff -1] [Gc]/[Gc]/[Gc]/[Gc]/!ped-up!!ped! [Gc]/[Gc]/[G=Ac]/[GAce]/!ped-up! | %54
!ped!!pp! (3[DG]!pp!DD[I:staff +1] x/[I:staff -1] D/[DG]/!ped-up![DG]/!ped-up!!ped! (3[EG]!pp![EG][EG] (3[E=F]!ped-up!!ped![EF][CE] | %55
!p!!ped! (3[B,D]!pp![B,D][B,D]!ped-up!!ped! (3[B,D][B,D][B,D]!p!!ped-up!!ped! (3[B,D]!pp![=B,D][B,D]!pp!!ped-up!!ped! (3[B,D][B,D]!mp![B,D]!ped-up! | %56
!ped! (3[=B,D]!p![CE][CE]!ped-up!!ped! (3[CE][CE]!mf![CE]!ped-up!!ped! (3[A,_D]!mp![A,D][DA] (3[FA_d][FAd]!mp![_Bd]!ped-up! | %57
!ped! (3[_GAe]!p![GAe][GAe]!ped-up!!ped! (3[GAe][GAe]!mp![GAe]!ped-up!!ped! (3[FA_d]!p![FAd][FAd] (3[FAd][FAd]!mf![FAd]!ped-up! | %58
!ped! (3[FGc]!p![FGc][FGc]!ped-up!!ped! (3[DF][DF][DF]!ped-up!!ped!!<(! E/E/[EG]/[EG]/ [EGc]/[Gc]/!<)!!mp![ce]/!f![ce]/!ped-up! | %59
!ped! (3[FG=B]!mp![FGB][FGB]!ped-up!!ped! (6:4:6[FGB]/[FGB]/[FGB]/[FGB]/!f![FGB]/[FGB]/!ped-up!!ped! (3[G=c]!mp!!>(![Gc][Gc] (3[Gc]!>)!!pp![Gc]!mp![Gc]!ped-up! | %60
!ped! (3[DA]!p![DA][DA]!ped-up!!ped! (3[DA][DA]!f![DA]!ped-up!!ped!!<(! (3[EG]!pp![EG][EG] (3[EG][EG]!mp![EG]!ped-up!!<)! | %61
!f!!ped! (3F!mp![FG][FG] (3[FG][FG]!f![FG]!ped-up!!ped! (3[EG]!mp!!<(![EG][EG] (3[Gc][Gce]!f![Gce]!ped-up!!<)! | %62
!ped! (3[Ace]!mp![Ace][Ace] (3[Ace][Ace]!mf![FA]!ped-up!!ped! (3[FAc]!mp![FAc][FAc] (7:4:7[Ac]/[Ac]/[Ac]/[Ac]/[Ac]/[Ace]/[Ace]/!ped-up! | %63
!ped![I:staff +1] x4!ped-up!!ped! x4 |!ped-up! %64
!ped! x2 z2!ped-up!!ped! z2[I:staff -1] (3[Acf][Acf]!f![Acf]!ped-up! | %65
!ped![I:staff +1] x2[I:staff -1] (3[Ace][ABd]!f![ABd]!ped-up!!ped![I:staff +1] x/!p![I:staff -1] [GB]/[GB]/[GB]/ [GB]/[GB]/[GB]/[GB]/!ped-up! | %66
!ped! (3[GA]!mp![GA][GA] (3[GA][GA]!f![GA]!ped-up!!ped! (3[FA]!mp![FA][FA] (3[FAc][FAc]!f![FAc]!ped-up! | %67
!ped! (3[FAc]!mp![FAc][FAc] (3[FG=B][FGB]!f![FGB]!ped-up!!ped! [EA]/[EA]/[EA]/[EA]/ [EA]/[EA]/[EA]/[EA]/!ped-up! | %68
!ped! (3[G,C]!mp![G,C]C (3[cg][cg]!f![cg]!ped-up!!ped! [cd]/!mp![cd]/[cd]/[cd]/ [cd]/[Ac]/F/[FAc]/!ped-up! | %69
!ped! [=EBc]/!mp![FBc]/[EBc]/[DBc]/ [EBc]/[Bc]/[Bce]/[Bce]/!ped-up!!ped! F/!mp![Fc]/[Fc]/c/ [cd]/[cd]/F/[Fc]/!ped-up! | %70
!ped![I:staff +1] (3[G,,,G,,]!mp![C,G,][G,C] (3[C,G,][G,C][C,G,]!ped-up!!ped! (3[G,,,G,,][G,,D,][D,G,] (3[G,,D,][D,G,]!f![G,,,G,,]!ped-up! | %71
!ped! [E,A,] x (3[_G,,E,][E,A,]!f![_G,,,G,,]!ped-up!!ped! (3[F,,,F,,]!mp![F,,_D,][D,A,] (3[F,,D,][D,A,]!f![F,,,F,,]!ped-up! | %72
!ped! (3[=G,,,=G,,]!mp![G,,=D,][D,F,] (3[F,A,][F,A,][F,A,]!ped-up!!ped! (3[G,,,G,,][G,,D,][D,F,]!ped-up!!ped! (3[F,=B,][F,B,][F,B,]!ped-up! | %73
!mf!!ped! (3C,,,"^dim. e rall."!>(!G,,[G,,E,] (3[E,G,][E,G,].G,,,!ped-up! (3.C,,!ped!G,,[G,,E,] (3[E,G,][E,G,]!>)!!p!.G,,,!ped-up! | %74
!ped! C,,,2!ped-up!!ped! z2!ped-up!!ped! z4!ped-up!!ped!!ped-up! | %75
 z4!ped! [E,G,]2 [E,G,]2!ped-up! | [E,G,]8 |] %77
V:3
 x8 | x8 | x8 | x8 | x8 | x8 | x8 | x8 | x8 | x x/!pp! _G/A/e/ x x4 | x8 | x8 | x8 | x8 | %14
 x4 x (6:4:6x/4 e/4f/4e/4d/4e/4 x2 | x8 | x8 | x8 | x8 | x8 | x8 | x8 | x8 | x8 ||[K:C] x8 | x8 | %26
 x8 | x8 | x8 | x8 | x8 | x8 | x8 | x8 | x8 | x6 [FGg]2 | x8 | x8 | x8 | x8 | x8 | x8 | x8 | x8 | %44
 x8 | x/3!8va(! x8/3!8va)! x5 | x8 | x!8va(! x2!8va)! x5 || %48
[K:Eb] (3z!pp! [Gce][Gce] (3[Gce]!pp![Gce][Gce] (3[Ace][Ace][Ace] (3[Ace]!pp![Ace][Ace] | %49
 (3[FGd][FGd][FGd]!pp! (3[FGd][FGd][FG] x4 | %50
 (3A!pp![EA][EA] (3[EA]!pp![EA][EA] (3[DA]!pp![DA][DA] (3[DA][DA][DA] | %51
 (3[CDF]!pp![CDF][CDF] x2 x4 | %52
[I:staff +1] (3[E,G,_B,][I:staff -1] [GBe][GBe] (3[GBe]!pp![GBe][GBe] (3[Ace][Ace][Ace] (3[Ace]!pp![Ace][Ace] | %53
 (3[ABd][ABd][ABd]!pp! (3[Ad][Ad][Ad] x4 | x8 | x8 | x8 | x8 | x8 | x8 | x8 | x8 | x321/40 | %63
 (3[FAB]!mp!"_cresc."[FAB][FAB] (3[FAB][FB][FA] (3[FG][FG][FG] (3[FG][FA]!mf![FG] | %64
 (3[=EG_Bc=e][EGBce][GBce] (3[Bce]!mp![Bce][Bce] x4 | (3[Ac_e][Ace][Ace] x2 x4 | x8 | x8 | x8 | %69
 x8 | (3[_EGc]!p![EGc][EGc] (3[EGc][EGc][EG] (3[CD]!p![CD][CD] (3[=B,D][B,D][B,D] | x8 | x8 | x8 | %74
 x8 | x8 | x8 |] %77
V:4
 x8 | x8 | x8 | x8 | x8 | x8 | x8 | x8 | x8 | x8 | x8 | x8 | x8 | x8 | x8 | x8 | x8 | x8 | x8 | %19
 x8 | x8 | x8 | x8 | [C,,,C,,]8 ||[K:C] [C,,C,]4 [G,,,G,,]2 G,,>G,, | %25
 [C,,C,]2 [C,,C,]2 [C,,G,,C,]2 [C,,C,]2 | [C,,G,,E,]4 [A,,E,]2 [A,,,A,,]>[A,,,A,,-] | %27
 [D,,A,,]4 [G,,,G,,]2 [G,,=F,]2 | x8 | x8 | x8 | x8 | x8 | x8 | x8 | x8 | x8 | x8 | x8 | x8 | x8 | %41
 x8 | x8 | x8 | x{/^F,,G,,} TG,,2 F,,/G,,/ x4[K:treble] |[K:bass] x/3[K:treble] x5/3[K:bass] x6 | %46
 x8 | x[K:treble] x[K:bass] x6 ||[K:Eb] x8 | x4 (3[C,,C,]!pp![C,G,][E,E] (3[C,G,][E,E][C,G,] | x8 | %51
 x2 (3[G,,D,][D,G,][G,,D,] (3[C,,C,][G,,C,][C,G,] (3[G,,C,][C,G,][G,,C,] | x8 | %53
 x4 (3[C,,C,]!pp![C,G,][E,E] (3[C,G,][E,E][C,G,] | %54
 (3[D,,D,][B,,G,][D,B,] (3[B,,G,][D,B,]!p![D,,D,] (3[D,,,D,,][D,=A,][A,C] (3[D,A,][A,C][D,A,] | %55
 (3[G,,,G,,][G,,D,][D,G,] (3[G,,D,][D,G,]D,, (3[G,,,G,,][G,,D,][D,G,] (3[G,,D,][D,G,][G,,,G,,] | %56
 (3[_G,,,_G,,][B,,G,][C,A,] (3[G,,E,][C,A,][G,,,G,,] (3[F,,,F,,][F,,_D,][D,A,] (3[F,,D,][D,A,][F,,,F,,] | %57
 (3[C,,C,][C,A,][E,E] (3[C,A,][E,E][C,,C,] (3[_D,,_D,][D,A,][F,_D] (3[D,A,][F,D][C,,C,] | %58
 (3[=B,,,=B,,][B,,G,][=D,=D] (3[B,,G,][B,,G,][B,,,B,,] (3!>![C,,C,][C,G,][E,C] (3[C,G,][E,E][C,,C,] | %59
 (3!>![D,,D,][D,G,][G,D] (3[D,G,][G,D][D,,D,] (3!>![E,,E,][E,C][G,E] (3[E,C][G,E][E,,E,] | %60
 (3!>![F,,F,][F,=B,][B,F] (3[F,B,][B,F][F,,F,] (3!>![E,,E,][C,G,][G,C] (3[C,G,][G,C][C,,C,] | %61
 (3!>![=B,,,=B,,][B,,G,][D,D] (3[B,,G,][D,D][B,,,B,,] (3!>![C,,C,][C,G,][E,C] (3[C,G,][E,G,E][C,,C,] | %62
 (3!>![F,,,F,,][F,A,C][A,CE] (3[F,A,C][A,CE]!>![F,,,F,,] (3!>![A,,,A,,][F,A,C][A,CE] (3[F,A,C][A,CE]!mf![A,,,A,,] | %63
 (3[B,,,B,,]!mp![B,,A,][F,D] (3[B,,A,][F,D]!f![B,,,B,,] (3[=B,,,=B,,]!mf![B,,G,][D,D] (3[B,,G,][D,D]!f![B,,,B,,] | %64
 (3[C,,C,]!mp![G,_B,C][B,C=E] (3[G,B,C][B,CE]!f![C,,C,] (3[F,,F,]!mp![F,C][A,CE] (3[F,A,C][A,CF][F,,F,] | %65
 (3[B,,,B,,]!mp![F,A,C][A,C_E] (3[F,A,C][A,B,D][B,,,B,,] (3[E,,E,][E,G,B,][G,B,D] (3[E,G,B,][G,B,D]!f![E,,E,] | %66
 (3[A,,,A,,][C,E,A,][E,A,C] (3[C,E,A,][E,A,C][A,,,A,,] (3[D,,D,][D,F,A,][F,A,C] (3[D,F,A,][F,A,C][D,,D,] | %67
 (3[G,,,G,,][D,F,A,][F,A,C] (3[D,G,][G,=B,][G,,,G,,] (3[A,,,A,,]!mp!!<(![C,A,][E,A,C] (3[C,A,][E,A,C]!<)!!f![A,,,A,,] | %68
 (3[E,,,E,,]E,[G,E] (3[E,G,C][G,CG]!>![E,,,E,,] (3!>![F,,,F,,][F,CD][CDF] (3[F,CD][CDA]!f!!>![F,,,F,,] | %69
 (3!>![G,,,G,,][G,C][CG] (3[G,C][CG]!f!!>![G,,,G,,] (3!>![A,,,A,,][F,C][CF] (3[F,CD][CDA]!f![A,,,A,,] | %70
 x8 | (3[_G,,,_G,,]!mp![G,,E,][E,A,] x2 x4 | x8 | x8 | x8 | x4 [C,,C,]2 [C,,C,]2 | %76
 !fermata![C,,G,,C,]8 |] %77

